svgs/duotone/igloo.svg

<svg xmlns="http://www.w3.org/2000/svg" viewBox="0 0 576 512"><!--! Font Awesome Pro 6.4.2 by @fontawesome - https://fontawesome.com License - https://fontawesome.com/license (Commercial License) Copyright 2023 Fonticons, Inc. --><path class="fa-primary" style="fill:var(--fa-primary-color,inherit);opacity:var(--fa-primary-opacity,1);" d="M320 33.8c10.9 1.2 21.5 3 32 5.4V160H527.5c6.8 10.2 13 20.9 18.6 32H480V320h96v32l-192 0V480H352V352c0-35.3-28.7-64-64-64s-64 28.7-64 64V480H192V352L0 352V320H96V192H29.9c5.5-11.1 11.7-21.8 18.6-32H320V33.8zM197.5 320c13.2-37.3 48.7-64 90.5-64s77.4 26.7 90.5 64H448V192H128V320h69.5z"/><path class="fa-secondary" style="fill:var(--fa-secondary-color,inherit);opacity:var(--fa-secondary-opacity,.4);" d="M288 32c10.8 0 21.5 .6 32 1.8V160H48.5C100.2 82.8 188.1 32 288 32zM527.5 160H352V39.1C424.9 55.7 487.2 99.8 527.5 160zM0 320c0-46 10.8-89.4 29.9-128H96V320L0 320zm197.5 0L128 320V192H448V320l-69.5 0c-13.2-37.3-48.7-64-90.5-64s-77.4 26.7-90.5 64zM384 352l192 0v80c0 26.5-21.5 48-48 48H384V352zM192 480H48c-26.5 0-48-21.5-48-48V352l192 0V480zM576 320l-96 0V192h66.1c19.2 38.6 29.9 82 29.9 128z"/></svg>

<svg xmlns="http://www.w3.org/2000/svg" viewBox="0 0 576 512"><!--! Font Awesome Pro 6.1.1 by @fontawesome - https://fontawesome.com License - https://fontawesome.com/license (Commercial License) Copyright 2022 Fonticons, Inc. --><defs><style>.fa-secondary{opacity:.4}</style></defs><path class="fa-primary" d="M320 33.76C330.9 34.96 341.5 36.76 352 39.14V160H527.5C534.3 170.2 540.6 180.9 546.1 192H480V320H576V352H384V480H352V352C352 316.7 323.3 288 288 288C252.7 288 224 316.7 224 352V480H192V352H0V320H96V192H29.94C35.45 180.9 41.65 170.2 48.5 160H320V33.76zM197.5 320C210.6 282.7 246.2 256 288 256C329.8 256 365.4 282.7 378.5 320H448V192H128V320H197.5z"/><path class="fa-secondary" d="M288 32C298.8 32 309.5 32.6 320 33.76V160H48.5C100.2 82.82 188.1 32 288 32zM527.5 160H352V39.14C424.9 55.67 487.2 99.82 527.5 160zM0 320C0 274 10.77 230.6 29.94 192H96V320H0zM197.5 320H128V192H448V320H378.5C365.4 282.7 329.8 256 288 256C246.2 256 210.6 282.7 197.5 320zM576 352V432C576 458.5 554.5 480 528 480H384V352H576zM48 480C21.49 480 0 458.5 0 432V352H192V480H48zM576 320H480V192H546.1C565.2 230.6 576 274 576 320z"/></svg>
